X:189
T:Rengesd, uram a gyeremeket
O: Jávárdipataka (1960)
Q: "Tempo guisto"
M:2/4
L:1/8
K:F
ffdd | ffdd | cdcc | B2 B2 | 
ffdd | ffdd | BdcB | G2 G2 | 
BBcG | B2 B2 | BccG | B2 B2 | 
Bddd | ddcB | GcBA | G2 G2 |

